X:1
T:Title
%%score { ( 1 3 ) | ( 2 4 ) }
L:1/8
Q:1/4=106
M:4/4
K:G
V:1 treble nm="Grand Piano"
V:3 treble 
V:2 bass 
V:4 bass 
V:1
 [B,D]2 [DB]2 [CA]2 [G,B,G]2 | z4 [Ec]4 | z4 [Fd]4 | [Ge]>d ^c>d z2 D2 | %4
w: Thoro~Harris * * *||||
 [B,D]2 [DB]2 [CA]2 [G,B,G]2 | z4 [Ec]4 | F>G A>B c2 F2 | [CFA]4 [B,G]4 | e2 e2 z4 | z4 [Gd]4 | %10
w: ||||||
 [Ac]2 [DAc]2 [Ac]2 [CDFA]2 | z4 [Bd]4 | [ce]2 [ce]2 [ce]2 [CAc]2 | z4 [Bd]4 | d>B G>E D2 B2 | %15
w: |||||
 [CFA]4 [B,G]4 |] %16
w: |
V:2
 G,,2 [D,G,]2 G,,2 D,2 | z z/ E/ E>E C,2 E,2 | z z/[K:treble] F/ F>F[K:bass] D,2 F,2 | %3
 z z/[K:treble] G/ G>G G,2 B,2 | G,,2 [D,G,]2 G,,2 D,2 | z z/ E/ E>E C,2 E,2 | %6
 [D,D]>[E,E][K:treble] [F,F]>[G,G] [A,A]2[K:bass] [D,A,D]2 | [D,,D,]4 [G,,G,]4 | %8
 C,2 [G,CG]2 C,2 G,2 | z z/[K:treble] G/ B>A G,2 B,2 | z z/ ^G/ z z/ B/[K:bass] D,2 A,2 | %11
 z z/[K:treble] A/ B>c G,2 B,2 | z z/[K:treble] B/ z z/ d/[K:bass] C,2 G,2 | %13
 z z/[K:treble] A/ G>A G,2 B,2 | D>[K:bass]B, G,>E, D,2 [DG]2 | [D,,D,]4 [G,,D,G,]4 |] %16
V:3
 x8 | [CE]>c c>c z2 G,2 | [DF]>d d>d z2 [A,C]2 | z4 [GB]4 | x8 | [CE]>c c>c z2 G,2 | x8 | x8 | %8
 G>F z z/ A/ [Ge]2 [CEc]2 | [Dd]>d d>d z2 D2 | x8 | [GB]>c d>e z2 D2 | x8 | [Bd]>d d>d z2 D2 | x8 | %15
 x8 |] %16
V:4
 x8 | C,2 [E,G,]2 z4 | D,2[K:treble] [F,A,C]2[K:bass] z4 | G,2[K:treble] [B,D]2 z4 | x8 | %5
 C,2 [E,G,]2 z4 | x2[K:treble] x4[K:bass] x2 | x8 | x8 | G,2[K:treble] [B,D]2 z4 | %10
 D,2 A,2[K:bass] z4 | G,2[K:treble] [B,D]2 z4 | C,2[K:treble] [G,C]2[K:bass] z4 | %13
 G,2[K:treble] [B,D]2 z4 | x3/2[K:bass] x13/2 | x8 |] %16

